Origami/16x16/apps/preferences-system-network-symbolic.svg

<svg width="16" height="16" version="1.1" xmlns="http://www.w3.org/2000/svg">
 <path d="m10 9 5.5-4.5-5.5-4.5v2h-3v5h3v2z" style="fill:#5c5c5c"/>
 <path d="m6 6-5.5 4.5 5.5 4.5v-2h3v-5h-3z" style="fill:#5c5c5c"/>
</svg>

<svg xmlns="http://www.w3.org/2000/svg" width="16" height="16" version="1.1">
 <path style="fill:#5c5c5c" d="M 10,9 15.5,4.5 10,0 C 10,0.01 10,1.34 10,2 9,2 8,2 7,2 7,3.67 7,5.34 7,7 8,7 9,7 10,7 10,7.67 10,9 10,9 Z"/>
 <path style="fill:#5c5c5c" d="M 6,6 0.5,10.5 6,15 V 13 H 9 V 8 H 6 Z"/>
</svg>
